X 1
T: Sussex Polka
M:2/4
L:1/8
Z:Ed Caines
O:England
A:Sussex
R:Polka
S:Welch Family MS in Vic Gammon's Sussex Tune Book
K:G
DGA|B2B2Bdce|d2G2G2AB|c2ecB2dB|A2A2ADGA|B2B2Bdce|
dBG2g3d|edcBdcBA|A3G:||:Bc|d2d2d2ef|g2d2d2ea^f|g^fededcB|
cBAGA2GA|B2B2Bdce|d2G2g3d|edcBdcBA|A2G2:||
